icons/lightroom-filled.svg

<svg width="256" height="256" viewBox="0 0 256 256" fill="none" xmlns="http://www.w3.org/2000/svg">
<path d="M196 0H60C26.8629 0 0 26.8629 0 60V196C0 229.137 26.8629 256 60 256H196C229.137 256 256 229.137 256 196V60C256 26.8629 229.137 0 196 0Z" fill="#001E36"/>
<path d="M128.011 180.415H64.6113C63.5113 180.415 63.0113 179.815 63.0113 178.615V76.4152C62.9889 76.2506 62.9999 76.0833 63.0435 75.9231C63.087 75.7628 63.1624 75.613 63.265 75.4824C63.3676 75.3518 63.4953 75.2432 63.6407 75.1629C63.7861 75.0827 63.9461 75.0324 64.1113 75.0152H84.1113C84.2364 74.9924 84.3648 74.9953 84.4887 75.0236C84.6127 75.0519 84.7296 75.105 84.8325 75.1798C84.9353 75.2546 85.0219 75.3494 85.087 75.4587C85.1521 75.5679 85.1944 75.6892 85.2113 75.8152V160.115H131.411C132.411 160.115 132.711 160.615 132.511 161.515L129.611 178.915C129.596 179.145 129.535 179.369 129.432 179.575C129.329 179.781 129.186 179.965 129.011 180.115C128.718 180.318 128.368 180.423 128.011 180.415Z" fill="#31A8FF"/>
<path d="M144.011 100.415H161.511C161.985 100.427 162.443 100.588 162.821 100.875C163.198 101.162 163.474 101.561 163.611 102.015C164.025 102.723 164.296 103.504 164.411 104.315C164.611 105.315 164.811 106.415 164.911 107.415C165.011 108.415 165.111 109.715 165.111 111.015C168.114 107.51 171.742 104.594 175.811 102.415C180.38 99.9387 185.516 98.6978 190.711 98.8152C190.876 98.7929 191.043 98.8038 191.203 98.8474C191.364 98.891 191.513 98.9663 191.644 99.0689C191.775 99.1715 191.883 99.2993 191.964 99.4447C192.044 99.59 192.094 99.7501 192.111 99.9152V119.815C192.111 120.615 191.611 120.915 190.511 120.915C184.03 120.527 177.551 121.693 171.611 124.315C169.586 125.182 167.751 126.439 166.211 128.015V179.015C166.211 180.015 165.811 180.415 164.911 180.415H145.411C145.227 180.446 145.038 180.44 144.856 180.395C144.674 180.351 144.504 180.271 144.354 180.158C144.204 180.046 144.079 179.905 143.986 179.743C143.892 179.58 143.833 179.401 143.811 179.215V123.415C143.811 121.015 143.811 118.515 143.711 115.915C143.611 113.315 143.611 110.715 143.511 108.115C143.411 105.915 143.211 103.715 142.911 101.515C142.885 101.397 142.882 101.275 142.903 101.155C142.923 101.036 142.968 100.922 143.033 100.82C143.098 100.718 143.182 100.629 143.282 100.56C143.381 100.49 143.493 100.441 143.611 100.415C143.711 100.315 143.811 100.315 144.011 100.415Z" fill="#31A8FF"/>
</svg>

<svg xmlns="http://www.w3.org/2000/svg" width="256" height="256" fill="none"><path fill="#001E36" d="M196 0H60C26.863 0 0 26.863 0 60v136c0 33.137 26.863 60 60 60h136c33.137 0 60-26.863 60-60V60c0-33.137-26.863-60-60-60"/><path fill="#31A8FF" d="M128.011 180.415h-63.4c-1.1 0-1.6-.6-1.6-1.8v-102.2a1.24 1.24 0 0 1 1.1-1.4h20a.94.94 0 0 1 1.1.8v84.3h46.2c1 0 1.3.5 1.1 1.4l-2.9 17.4a1.73 1.73 0 0 1-.6 1.2 1.7 1.7 0 0 1-1 .3m16-80h17.5a2.25 2.25 0 0 1 2.1 1.6 6.3 6.3 0 0 1 .8 2.3c.2 1 .4 2.1.5 3.1s.2 2.3.2 3.6a37.2 37.2 0 0 1 10.7-8.6 29.86 29.86 0 0 1 14.9-3.6 1.24 1.24 0 0 1 1.4 1.1v19.9c0 .8-.5 1.1-1.6 1.1a40.8 40.8 0 0 0-18.9 3.4 16.8 16.8 0 0 0-5.4 3.7v51c0 1-.4 1.4-1.3 1.4h-19.5a1.37 1.37 0 0 1-1.057-.257 1.37 1.37 0 0 1-.543-.943v-55.8c0-2.4 0-4.9-.1-7.5s-.1-5.2-.2-7.8q-.15-3.3-.6-6.6a.93.93 0 0 1 .122-.695.9.9 0 0 1 .578-.405c.1-.1.2-.1.4 0"/></svg>
